other/chase.svg

<?xml version="1.0" encoding="UTF-8" standalone="no"?>
<svg
   xmlns:dc="http://purl.org/dc/elements/1.1/"
   xmlns:cc="http://creativecommons.org/ns#"
   xmlns:rdf="http://www.w3.org/1999/02/22-rdf-syntax-ns#"
   xmlns:svg="http://www.w3.org/2000/svg"
   xmlns="http://www.w3.org/2000/svg"
   xmlns:sodipodi="http://sodipodi.sourceforge.net/DTD/sodipodi-0.dtd"
   xmlns:inkscape="http://www.inkscape.org/namespaces/inkscape"
   viewBox="0 0 48 48"
   version="1.1"
   id="svg4"
   sodipodi:docname="chase.svg"
   inkscape:version="0.92.4 (fd57863, 2020-04-02)">
  <metadata
     id="metadata10">
    <rdf:RDF>
      <cc:Work
         rdf:about="">
        <dc:format>image/svg+xml</dc:format>
        <dc:type
           rdf:resource="http://purl.org/dc/dcmitype/StillImage" />
      </cc:Work>
    </rdf:RDF>
  </metadata>
  <defs
     id="defs8" />
  <sodipodi:namedview
     pagecolor="#ffffff"
     bordercolor="#666666"
     borderopacity="1"
     objecttolerance="10"
     gridtolerance="10"
     guidetolerance="10"
     inkscape:pageopacity="0"
     inkscape:pageshadow="2"
     inkscape:window-width="1920"
     inkscape:window-height="1015"
     id="namedview6"
     showgrid="false"
     inkscape:zoom="16.695745"
     inkscape:cx="26.338983"
     inkscape:cy="25.028928"
     inkscape:window-x="0"
     inkscape:window-y="28"
     inkscape:window-maximized="1"
     inkscape:current-layer="svg4" />
  <path
     style="display:inline;opacity:0.29200003;fill:#ffffff;fill-opacity:1;stroke:none;stroke-width:4.01921225;stroke-linecap:round;stroke-miterlimit:4;stroke-dasharray:none"
     d="m 17.544033,3.7929561 c -0.935491,-0.020121 -1.148814,0.9725164 -1.063815,1.710764 V 15.088869 H 43.616939 L 31.882507,3.7929561 Z M 15.026611,4.656459 3.7306972,16.390892 v 14.338474 c -0.020124,0.935489 0.9725163,1.148813 1.7107638,1.063813 h 9.58515 z m 28.113912,11.758794 c -0.196536,-0.02266 -0.397423,-0.01854 -0.581984,0.0027 h -9.58515 V 43.554679 L 44.269303,31.820247 V 17.481773 c 0.0151,-0.701617 -0.539175,-0.998531 -1.12878,-1.06652 z M 4.507579,32.911131 16.242011,44.207044 h 14.338475 c 0.93549,0.02012 1.148813,-0.972517 1.063813,-1.710764 v -9.585149 z"
     id="path817"
     inkscape:connector-curvature="0" />
</svg>

<?xml version="1.0" encoding="UTF-8"?>
<svg version="1.1" viewBox="0 0 48 48" xmlns="http://www.w3.org/2000/svg">
    <path d="m17.544 3.793c-0.93549-0.020121-1.1488 0.97252-1.0638 1.7108v9.5851h27.137l-11.734-11.296zm-2.5174 0.8635-11.296 11.734v14.338c-0.020124 0.93549 0.97252 1.1488 1.7108 1.0638h9.5852zm28.114 11.759c-0.19654-0.02266-0.39742-0.01854-0.58198 0.0027h-9.5852v27.137l11.296-11.734v-14.338c0.0151-0.70162-0.53918-0.99853-1.1288-1.0665zm-38.633 16.496 11.734 11.296h14.338c0.93549 0.02012 1.1488-0.97252 1.0638-1.7108v-9.5851z" fill="#fff"/>
</svg>
